X: 1
T:Bourree du Plaix
C:Mic Baudimant
N:abc transcription Simon Wascher
N:if you find an error in this transcription please inform simon.wascher@chello.at
M:3/8
L:1/8
K:Dm
A2B|AGF|EFG|FED|
A2B|AGF|GFE|D2D:|
|:E2F|EDE|A2F|E2D|
E2F|EDE|AFE|D2D:|
